X: 27549
T: Monaghan, The
R: jig
M: 6/8
K: Eminor
|:BGE FEF|BGE FGA|BGE BBB|AFD FGA|
BGE FEF|BGE FGA|dcB ABG|FDF AGF:|
|:EGB efg|fed edB|EFG AAG|FDF AGF|
EGB efg|fed edB|dcB ABG|FDF AGF:|
|:g2e eBe|geg bge|g2e eBe|fdf agf|
g2e eBe|geg bge|dcB ABG|FDF AGF:|
|:EGB eBG|BGE FAF|EGB eBG|FDF AGF|
EGB GBe|Beg efg|dcB ABG|FDF AGF:|

